public/logos/3K.svg

<?xml version="1.0" encoding="UTF-8"?>
<svg xmlns="http://www.w3.org/2000/svg" xmlns:xlink="http://www.w3.org/1999/xlink" width="176pt" height="37.85pt" viewBox="0 0 176 37.85" version="1.1">
<defs>
<clipPath id="clip1">
  <path d="M 58 0 L 100 0 L 100 37.851562 L 58 37.851562 Z M 58 0 "/>
</clipPath>
</defs>
<g id="surface1">
<path style=" stroke:none;fill-rule:nonzero;fill:rgb(6.266785%,5.734253%,5.047607%);fill-opacity:1;" d="M 47.074219 5.472656 L 53.753906 5.472656 L 53.753906 12.386719 L 57.683594 12.386719 L 57.683594 17.394531 L 53.753906 17.394531 L 53.753906 23.785156 C 53.753906 26.023438 53.878906 27.398438 54.125 27.910156 C 54.371094 28.425781 54.835938 28.683594 55.519531 28.683594 C 55.730469 28.683594 57.980469 28.75 58.273438 28.683594 L 58.273438 34.539062 C 57.472656 34.679688 53.273438 34.539062 52.449219 34.539062 C 50.3125 34.539062 48.882812 34.050781 48.160156 33.074219 C 47.4375 32.097656 47.074219 30.082031 47.074219 27.027344 L 47.074219 17.394531 L 44.242188 17.394531 L 44.242188 12.386719 L 47.074219 12.386719 Z M 37.148438 19.515625 C 36.878906 18.058594 36.421875 16.96875 35.777344 16.25 C 35.132812 15.53125 34.289062 15.171875 33.246094 15.171875 C 32.148438 15.171875 31.214844 15.558594 30.441406 16.332031 C 29.667969 17.105469 29.160156 18.167969 28.917969 19.515625 Z M 44.445312 24.320312 L 28.917969 24.320312 C 29.121094 25.929688 29.601562 27.15625 30.359375 28 C 31.121094 28.84375 32.121094 29.265625 33.367188 29.265625 C 34.113281 29.265625 34.773438 29.058594 35.339844 28.640625 C 35.910156 28.222656 36.351562 27.617188 36.660156 26.828125 L 43.980469 26.828125 C 43.273438 29.273438 41.964844 31.171875 40.046875 32.519531 C 38.128906 33.863281 35.761719 34.539062 32.941406 34.539062 C 29.609375 34.539062 26.90625 33.414062 24.832031 31.171875 C 22.757812 28.925781 21.722656 26.023438 21.722656 22.464844 C 21.722656 18.933594 22.777344 16.078125 24.882812 13.894531 C 26.992188 11.710938 29.75 10.621094 33.164062 10.621094 C 36.6875 10.621094 39.457031 11.738281 41.46875 13.976562 C 43.480469 16.210938 44.488281 19.289062 44.488281 23.207031 C 44.488281 23.316406 44.480469 23.492188 44.46875 23.738281 C 44.453125 23.988281 44.445312 24.179688 44.445312 24.320312 Z M 12.976562 5.472656 L 20.4375 5.472656 L 20.4375 23.9375 C 20.4375 27.59375 19.613281 30.273438 17.957031 31.980469 C 16.304688 33.683594 13.691406 34.539062 10.121094 34.539062 C 6.8125 34.539062 4.316406 33.773438 2.632812 32.238281 C 0.949219 30.707031 0.0703125 28.402344 0 25.328125 L 0 21.714844 L 7.40625 21.714844 L 7.40625 25.328125 C 7.433594 26.445312 7.675781 27.300781 8.140625 27.886719 C 8.605469 28.472656 9.277344 28.765625 10.15625 28.765625 C 11.226562 28.765625 11.964844 28.457031 12.371094 27.835938 C 12.777344 27.21875 12.976562 25.917969 12.976562 23.9375 L 12.976562 5.472656 "/>
<path style=" stroke:none;fill-rule:nonzero;fill:rgb(56.349182%,56.655884%,56.555176%);fill-opacity:1;" d="M 174.726562 22.066406 L 174.726562 28.542969 C 174.726562 29.796875 174.828125 30.90625 175.03125 31.875 C 175.238281 32.839844 175.5625 33.710938 176 34.484375 L 167.539062 34.484375 C 167.421875 34.097656 167.3125 33.675781 167.210938 33.222656 C 167.109375 32.765625 166.992188 32.125 166.859375 31.304688 C 166.039062 32.621094 164.96875 33.632812 163.652344 34.335938 C 162.332031 35.039062 160.839844 35.390625 159.167969 35.390625 C 156.765625 35.390625 154.882812 34.738281 153.519531 33.429688 C 152.160156 32.121094 151.480469 30.316406 151.480469 28.011719 C 151.480469 26.027344 152.070312 24.519531 153.257812 23.484375 C 154.445312 22.445312 156.414062 21.757812 159.167969 21.417969 C 160.296875 21.277344 161.496094 21.160156 162.773438 21.070312 C 163.078125 21.054688 163.269531 21.039062 163.34375 21.023438 C 164.558594 20.898438 165.441406 20.636719 165.992188 20.234375 C 166.539062 19.832031 166.816406 19.257812 166.816406 18.515625 C 166.816406 17.742188 166.535156 17.109375 165.980469 16.625 C 165.425781 16.136719 164.699219 15.894531 163.804688 15.894531 C 162.882812 15.894531 162.117188 16.144531 161.507812 16.648438 C 160.902344 17.148438 160.539062 17.820312 160.421875 18.65625 L 152.183594 18.65625 C 152.476562 16.347656 153.609375 14.578125 155.585938 13.339844 C 157.5625 12.101562 160.238281 11.480469 163.605469 11.480469 C 165.835938 11.480469 167.746094 11.78125 169.34375 12.375 C 170.9375 12.972656 172.199219 13.859375 173.121094 15.035156 C 173.707031 15.792969 174.121094 16.660156 174.363281 17.632812 C 174.605469 18.609375 174.726562 20.085938 174.726562 22.066406 Z M 166.726562 23.042969 C 166.082031 23.675781 164.84375 24.273438 163.015625 24.828125 C 162.660156 24.9375 162.40625 25.015625 162.246094 25.0625 C 161.394531 25.339844 160.773438 25.707031 160.378906 26.164062 C 159.980469 26.621094 159.785156 27.207031 159.785156 27.917969 C 159.785156 28.753906 160.0625 29.421875 160.617188 29.925781 C 161.175781 30.425781 161.90625 30.679688 162.816406 30.679688 C 164.136719 30.679688 165.132812 30.175781 165.804688 29.171875 C 166.480469 28.164062 166.816406 26.671875 166.816406 24.691406 C 166.816406 24.519531 166.808594 24.316406 166.792969 24.074219 C 166.777344 23.835938 166.757812 23.492188 166.726562 23.042969 Z M 141.808594 12.375 L 148.957031 12.375 L 148.957031 34.472656 L 141.808594 34.472656 Z M 138.964844 18.609375 L 131.316406 18.609375 C 131.257812 17.601562 130.964844 16.851562 130.4375 16.355469 C 129.910156 15.863281 129.132812 15.613281 128.109375 15.613281 C 127.273438 15.613281 126.625 15.789062 126.164062 16.136719 C 125.703125 16.484375 125.472656 16.976562 125.472656 17.609375 C 125.472656 18.261719 125.808594 18.78125 126.480469 19.175781 C 127.15625 19.570312 128.355469 19.921875 130.085938 20.234375 C 133.835938 20.882812 136.335938 21.714844 137.578125 22.730469 C 138.824219 23.742188 139.445312 25.253906 139.445312 27.265625 C 139.445312 29.757812 138.4375 31.734375 136.425781 33.199219 C 134.410156 34.660156 131.667969 35.390625 128.195312 35.390625 C 124.929688 35.390625 122.386719 34.777344 120.570312 33.546875 C 118.753906 32.316406 117.671875 30.46875 117.320312 28.011719 L 125.097656 28.011719 C 125.214844 28.984375 125.5625 29.726562 126.140625 30.238281 C 126.722656 30.75 127.5 31.003906 128.480469 31.003906 C 129.40625 31.003906 130.136719 30.792969 130.679688 30.367188 C 131.222656 29.941406 131.492188 29.363281 131.492188 28.636719 C 131.492188 28.078125 131.226562 27.621094 130.691406 27.265625 C 130.15625 26.910156 129.265625 26.609375 128.019531 26.359375 C 127.40625 26.238281 126.550781 26.089844 125.449219 25.921875 C 123.648438 25.640625 122.453125 25.378906 121.867188 25.132812 C 120.417969 24.480469 119.371094 23.699219 118.726562 22.785156 C 118.082031 21.875 117.757812 20.722656 117.757812 19.328125 C 117.757812 16.914062 118.761719 14.996094 120.769531 13.570312 C 122.777344 12.148438 125.507812 11.4375 128.964844 11.4375 C 132.101562 11.4375 134.550781 12.070312 136.316406 13.339844 C 138.078125 14.609375 138.964844 16.363281 138.964844 18.609375 Z M 96.839844 5.519531 L 106.308594 5.519531 L 116.691406 34.472656 L 108.484375 34.472656 L 106.847656 28.941406 L 96.261719 28.941406 L 94.589844 34.472656 L 86.417969 34.472656 Z M 101.40625 12.460938 L 98.140625 23.109375 L 104.972656 23.109375 L 101.703125 12.460938 L 101.40625 12.460938 "/>
<path style=" stroke:none;fill-rule:nonzero;fill:rgb(94.395447%,28.218079%,12.127686%);fill-opacity:1;" d="M 83.347656 21.324219 L 85.890625 36.457031 L 75.519531 26.414062 L 60.445312 33.785156 L 69.003906 20.964844 L 60 12.441406 L 74.261719 12.746094 L 82.832031 1.429688 L 83.054688 12.746094 L 97.800781 12.746094 L 83.347656 21.324219 "/>
<g clip-path="url(#clip1)" clip-rule="nonzero">
<path style=" stroke:none;fill-rule:nonzero;fill:rgb(100%,100%,100%);fill-opacity:1;" d="M 75.613281 25.820312 L 85.15625 35.0625 L 82.804688 21.074219 L 96.007812 13.238281 L 82.574219 13.238281 L 82.367188 2.855469 L 74.503906 13.246094 L 61.261719 12.960938 L 69.640625 20.890625 L 61.863281 32.542969 Z M 86.621094 37.851562 L 75.421875 27.007812 L 59.023438 35.027344 L 68.363281 21.035156 L 58.734375 11.921875 L 74.023438 12.25 L 83.292969 0 L 83.539062 12.257812 L 99.589844 12.257812 L 83.886719 21.578125 L 86.621094 37.851562 "/>
</g>
</g>
</svg>

<svg xmlns="http://www.w3.org/2000/svg" width="176pt" height="50.467" viewBox="0 0 176 37.85"><defs><clipPath id="a"><path d="M58 0h42v37.852H58Zm0 0"/></clipPath></defs><path d="M47.074 5.473h6.68v6.914h3.93v5.008h-3.93v6.39q.001 3.357.371 4.125.368.774 1.395.774c.21 0 2.46.066 2.753 0v5.855c-.8.14-5 0-5.824 0q-3.204 0-4.289-1.465-1.085-1.464-1.086-6.047v-9.632h-2.832v-5.008h2.832Zm-9.926 14.043q-.404-2.187-1.37-3.266-.968-1.078-2.532-1.078-1.645 0-2.805 1.16-1.159 1.16-1.523 3.184Zm7.297 4.804H28.918q.305 2.414 1.441 3.68c.762.844 1.762 1.266 3.008 1.266q1.12.001 1.973-.625.857-.628 1.32-1.813h7.32c-.707 2.445-2.015 4.344-3.933 5.692-1.918 1.343-4.285 2.02-7.106 2.02-3.332 0-6.035-1.126-8.109-3.368q-3.11-3.37-3.11-8.707.001-5.296 3.16-8.57 3.163-3.275 8.282-3.274 5.286-.001 8.305 3.356 3.018 3.352 3.02 9.23-.002.163-.02.531-.024.373-.024.582M12.977 5.473h7.46v18.465q.002 5.483-2.48 8.042c-1.652 1.704-4.266 2.56-7.836 2.56q-4.963 0-7.488-2.302Q.106 29.94 0 25.328v-3.613h7.406v3.613c.028 1.117.27 1.973.735 2.559q.696.879 2.015.879 1.605 0 2.215-.93.607-.927.606-3.898z" style="stroke:none;fill-rule:nonzero;fill:#100f0d;fill-opacity:1"/><path d="M174.727 22.066v6.477q0 1.88.304 3.332.311 1.448.969 2.61h-8.46a18 18 0 0 1-.33-1.262 36 36 0 0 1-.35-1.918q-1.231 1.976-3.208 3.03-1.978 1.056-4.484 1.056-3.603 0-5.648-1.961-2.04-1.963-2.04-5.418c0-1.985.59-3.492 1.778-4.528q1.78-1.557 5.91-2.066a68 68 0 0 1 3.605-.348q.459-.022.57-.047 1.823-.186 2.65-.789.821-.604.823-1.718c0-.774-.28-1.407-.836-1.891q-.832-.731-2.175-.73-1.383 0-2.297.753c-.606.5-.969 1.172-1.086 2.008h-8.238q.438-3.46 3.402-5.316 2.966-1.858 8.02-1.86c2.23 0 4.14.301 5.738.895q2.392.896 3.777 2.66.879 1.138 1.242 2.598.364 1.463.364 4.433m-8 .977q-.968.951-3.711 1.785-.532.165-.77.235-1.276.415-1.867 1.101c-.399.457-.594 1.043-.594 1.754q0 1.253.832 2.008.837.752 2.2.754 1.98-.001 2.988-1.508 1.012-1.511 1.011-4.48 0-.257-.023-.618c-.016-.238-.035-.582-.066-1.031m-24.918-10.668h7.148v22.098h-7.148Zm-2.844 6.234h-7.649q-.087-1.51-.879-2.254-.791-.74-2.328-.742-1.254.001-1.945.524-.69.522-.691 1.472c0 .653.336 1.172 1.007 1.567.676.394 1.875.746 3.606 1.058 3.75.649 6.25 1.48 7.492 2.496q1.868 1.518 1.867 4.536 0 3.737-3.02 5.933-3.022 2.192-8.23 2.192-4.898 0-7.625-1.844c-1.816-1.23-2.898-3.078-3.25-5.535h7.778q.176 1.459 1.043 2.226c.582.512 1.359.766 2.34.766q1.386.001 2.199-.637.813-.64.812-1.73.001-.839-.8-1.371-.803-.533-2.672-.907a62 62 0 0 0-2.57-.437q-2.704-.42-3.583-.79-2.174-.977-3.14-2.347-.969-1.365-.97-3.457 0-3.62 3.013-5.758 3.01-2.133 8.195-2.133 4.705-.001 7.351 1.903c1.762 1.27 2.649 3.023 2.649 5.27M96.84 5.52h9.469l10.382 28.954h-8.207l-1.636-5.532H96.262l-1.672 5.532h-8.172Zm4.566 6.942-3.265 10.648h6.832l-3.27-10.648z" style="stroke:none;fill-rule:nonzero;fill:#909090;fill-opacity:1"/><path d="m83.348 21.324 2.543 15.133L75.52 26.414l-15.075 7.371 8.559-12.82L60 12.44l14.262.305 8.57-11.316.223 11.316H97.8z" style="stroke:none;fill-rule:nonzero;fill:#f1481f;fill-opacity:1"/><g clip-path="url(#a)"><path d="m75.613 25.82 9.543 9.243-2.351-13.989 13.203-7.836H82.574l-.207-10.383-7.863 10.391-13.242-.285 8.379 7.93-7.778 11.652Zm11.008 12.032-11.2-10.844-16.398 8.02 9.34-13.993-9.629-9.113 15.29.328L83.292 0l.246 12.258h16.05l-15.702 9.32z" style="stroke:none;fill-rule:nonzero;fill:#fff;fill-opacity:1"/></g></svg>
